X: 159
T:Gloria  De beata virgine
N: Derived from Jos1307-Gloria_De_beata_virgine.krn
C: Josquin des Prez
%%abc-version 2.0
%%abcx-abcm2ps-target-version 5.9.1 (29 Sep 2008)
%%abc-creator hum2abc beta
%%abcx-conversion-date 2019/02/12 16:15:46
%%abc-edited-by Jesse Rodin
%%abc-edited-by Will Watson 27/05/2011
%%abcx-initial-encoding-date 2011/05/27/
%%humdrum-veritas 663009791
%%humdrum-veritas-data 452652525
%%linebreak <none>
%%barnumbers 0
L: 1/4
M: 3/1
Q: 1/2=120
%%staves [1 2 3 4]
V: 1 clef=treble
V: 2 clef=treble-8
V: 3 clef=treble-8
V: 4 clef=bass
K: C
[V:1] G8G4 | 
[V:2] G8g4- | 
[V:3] d8e4 | 
[V:4] G,8E,4- | 
[V:1] G4A6GA | 
[V:2] g4f8 | 
[V:3] B3cd4d4 | 
[V:4] E,4D,8 | 
[V:1] B8c4 | 
[V:2] g6f2e4 | 
[V:3] G8A4 | 
[V:4] D8C3B, | 
[V:1] B4A6GA | 
[V:2] d4f8 | 
[V:3] B4c3BA4 | 
[V:4] G,4F,8 | 
[V:1] B8z2c2- | 
[V:2] d4e4A4 | 
[V:3] G8c3B | 
[V:4] G,4E,4F,4- | 
[V:1] c2B2A2G2A4 | 
[V:2] z2d4B2A4 | 
[V:3] A2G2A2E2^F4 | 
[V:4] F,2G,2F,2G,2D,4 | 
[V:1] B4z4d4- | 
[V:2] G6g3fg2 | 
[V:3] G12 | 
[V:4] D6C_B,B,4- | 
[V:1] d4c4B4 | 
[V:2] d2f3ea4g2 | 
[V:3] z12 | 
[V:4] B,4F,4G,4 | 
[V:1] A3Bc2d4^c2 | 
[V:2] f2a4f2e4 | 
[V:3] z12 | 
[V:4] D,4z4A,4 | 
[V:1] d12 | 
[V:2] d3cA2G2B4- | 
[V:3] z4z4d4 | 
[V:4] _B,3A,F,2G,3F,D,2- | 
[V:1] z12 | 
[V:2] B2A2A4z4 | 
[V:3] d4c4B4 | 
[V:4] D,2F,3E,A,4G,2 | 
[V:1] z12 | 
[V:2] z4z4g4 | 
[V:3] A3Bc2d4^c2 | 
[V:4] F,2A,4F,2E,4 | 
[V:1] d4B2c3BAG | 
[V:2] f4d2_e3dc_B | 
[V:3] d4z4z4 | 
[V:4] D,4z4C,4 | 
[V:1] F4G4A4- | 
[V:2] A4G4F2f2- | 
[V:3] d4B2c3BAG | 
[V:4] D,4E,4F,3E, | 
[V:1] A2_B3A/G/G4^F2 | 
[V:2] fed4c2d4- | 
[V:3] F4G4A4 | 
[V:4] D,C,_B,,2_E,4D,4 | 
[V:1] G12 | 
[V:2] d4B4G4 | 
[V:3] G12 | 
[V:4] z4z4D4 | 
[V:1] z4z4d4 | 
[V:2] g8f4 | 
[V:3] z12 | 
[V:4] E8D4 | 
[V:1] e8d4 | 
[V:2] e3fg2a2d4 | 
[V:3] z4z4g4 | 
[V:4] C6B,A,B,4 | 
[V:1] c6A2B4 | 
[V:2] e12 | 
[V:3] a8g4 | 
[V:4] A,4z4E,4 | 
[V:1] A3Bc2d4^c2 | 
[V:2] A2a4g2a4 | 
[V:3] f6d2e4 | 
[V:4] F,2D,2A,2_B,2A,4 | 
[V:1] d6c2B4 | 
[V:2] f4g4d2e2 | 
[V:3] d4z4G4 | 
[V:4] D,4G,8 | 
[V:1] A4z2G2A2G2 | 
[V:2] f4d2e2f2d2- | 
[V:3] A4B4c2B2 | 
[V:4] F,4G,4F,2G,2- | 
[V:1] A4B2G2A2c2 | 
[V:2] def2d2g4f2 | 
[V:3] A4G4c4 | 
[V:4] G,2F,2G,2_B,2A,4 | 
[V:1] B4A2B3GA2 | 
[V:2] g2G2A2GB2cA2 | 
[V:3] d12 | 
[V:4] G,4F,2G,4F,2 | 
[V:1] B2G2A2c2z2B2 | 
[V:2] G4c3de2d2 | 
[V:3] z2d2e2f2g3f | 
[V:4] G,2_B,2A,4z2G,2 | 
[V:1] c2d2z2G2A2B2 | 
[V:2] z2G2c3defg2 | 
[V:3] e2d2e3dc2B2 | 
[V:4] A,2B,2C3B,A,2G,2 | 
[V:1] z2E2F2G4^F2 | 
[V:2] z2c3ABcd2A2 | 
[V:3] c3BA2G2A4 | 
[V:4] A,3G,F,2E,2D,4 | 
[V:1] G4z4d4 | 
[V:2] B2c2d4z2d2 | 
[V:3] G12 | 
[V:4] G,8z4 | 
[V:1] c2B4AGA4 | 
[V:2] e2d2edg4f2 | 
[V:3] z12 | 
[V:4] z12 | 
[V:1] G2B2c2d4^c2 | 
[V:2] e2g4f2e4 | 
[V:3] z12 | 
[V:4] z12 | 
[V:1] d2A2_B2AGF4 | 
[V:2] d4G4A4 | 
[V:3] z4z4d4 | 
[V:4] z4z4D,4 | 
[V:1] z2G4FEF4 | 
[V:2] G8d3c | 
[V:3] c2_B4AGA4 | 
[V:4] _E,8D,4 | 
[V:1] G4z4G4 | 
[V:2] _BAG4F2G4 | 
[V:3] G2_B2c2d4c2 | 
[V:4] _E,6D,2E,4 | 
[V:1] F2F4EDE4 | 
[V:2] A4B4c4 | 
[V:3] d4d4g4 | 
[V:4] D,4z4C,4 | 
[V:1] D2A3Bc3BAG | 
[V:2] z2F3GAFc4 | 
[V:3] f3ed2c2e4 | 
[V:4] D,4z4C,4 | 
[V:1] B2A4G4FE | 
[V:2] z2F3GAFc4 | 
[V:3] f8e4 | 
[V:4] D,4z4C,4 | 
[V:1] F3GA2G4E2 | 
[V:2] z2F4G3ABG | 
[V:3] d4z4G4 | 
[V:4] D,6E,6 | 
[V:1] F4G4E4 | 
[V:2] d3cd2e2c2e2 | 
[V:3] A4B2c6 | 
[V:4] D,4z4C,4 | 
[V:1] F6G4FE | 
[V:2] d4z4G4 | 
[V:3] B2A4G2c4 | 
[V:4] D,6E,6 | 
[V:1] F3GABc3BAG | 
[V:2] A2f4g2e2c2 | 
[V:3] d6e6 | 
[V:4] D,4z4C,4 | 
[V:1] B2A4G4^F2 | 
[V:2] f3ef2d3cd2 | 
[V:3] d2c4B2A4 | 
[V:4] D,2F,4G,2D,4 | 
[V:1] G8z4 | 
[V:2] B3AB2G2g4 | 
[V:3] G12 | 
[V:4] G,12 | 
[V:1] A8G4 | 
[V:2] f3ed2c2B4 | 
[V:3] z12 | 
[V:4] z12 | 
[V:1] F2_B3AA4G2 | 
[V:2] A2G2c4_B4 | 
[V:3] z12 | 
[V:4] z12 | 
[V:1] A4c4B4 | 
[V:2] A2f4e2d4- | 
[V:3] A8G4 | 
[V:4] F,8G,4 | 
[V:1] A4G8 | 
[V:2] d4B4c4 | 
[V:3] F4G8 | 
[V:4] D,4E,8 | 
[V:1] F4z4c4 | 
[V:2] d8a4 | 
[V:3] A12 | 
[V:4] D,8z4 | 
[V:1] d2e3dd4c2 | 
[V:2] f2g3fd2e4 | 
[V:3] z12 | 
[V:4] z12 | 
[V:1] d3cA2B2c3B | 
[V:2] d2f4ede2A2- | 
[V:3] z4z4c4 | 
[V:4] z4z4A,4 | 
[V:1] AGG4F2G4 | 
[V:2] A2B3AA4G2 | 
[V:3] d2e3dd4^c2 | 
[V:4] F,2G,3F,D,2E,4 | 
[V:1] z2F4G2A4 | 
[V:2] A4B4A4 | 
[V:3] d8c4 | 
[V:4] D,8F,4- | 
[V:1] A4G2F2E4 | 
[V:2] z2A2B4A4 | 
[V:3] f4e2d2c4 | 
[V:4] F,4G,4A,4 | 
[V:1] D8z4 | 
[V:2] a6gff4 | 
[V:3] d12 | 
[V:4] D,12 | 
[V:1] [M:6/1]A4B4c4d6cBB4- | 
[V:2] [M:6/1]z4d4e4f4g6fe | 
[V:3] [M:6/1]z24 | 
[V:4] [M:6/1]z24 | 
[V:1] B4c6BAA8B4- | 
[V:2] e8f6edd8 | 
[V:3] z24 | 
[V:4] z24 | 
[V:1] B2AGG6FEE6F2G4 | 
[V:2] e6dcc6BAc2d2B4 | 
[V:3] z24 | 
[V:4] z24 | 
[V:1] A6G4F2E4D3EF2G2 | 
[V:2] A6B2c2d4^c2d4A2_B2 | 
[V:3] z24 | 
[V:4] z24 | 
[V:1] A2_B4A2B2G2B2A4G2A4 | 
[V:2] A2G4F2GA_Bcd3ef2g4^f2 | 
[V:3] z24 | 
[V:4] z24 | 
[V:1] [M:3/1]G12 | 
[V:2] [M:3/1]g8z4 | 
[V:3] [M:3/1]G6c4B2 | 
[V:4] [M:3/1]z4z4G,4 | 
[V:1] z12 | 
[V:2] z12 | 
[V:3] c4d4e4 | 
[V:4] E,2F,4D,2C,2G,2- | 
[V:1] z12 | 
[V:2] z12 | 
[V:3] d6c4B2 | 
[V:4] G,F,G,D,2F,2E,2A,2G, | 
[V:1] z12 | 
[V:2] z12 | 
[V:3] A4G4c4 | 
[V:4] A,2C2B,4A,4 | 
[V:1] z12 | 
[V:2] z12 | 
[V:3] d4z2e4d2 | 
[V:4] z2D4C2B,4 | 
[V:1] z12 | 
[V:2] z12 | 
[V:3] c2A2B4A4 | 
[V:4] A,4z2G,4F,2 | 
[V:1] z4z4G4 | 
[V:2] z12 | 
[V:3] G2B3cd4^c2 | 
[V:4] E,2D,2G,3F,E,D,E,2 | 
[V:1] F4E2D4^C2 | 
[V:2] z4z4g4 | 
[V:3] [M:3/1]d4z4z4 | 
[V:4] z2D,2G,3F,E,D,E,2 | 
[V:1] D4z4E4 | 
[V:2] f4e2d4^c2 | 
[V:3] z12 | 
[V:4] z2D,2G,3F,E,D,E,2 | 
[V:1] F3E/D/D2d2c3B | 
[V:2] d4z4e4 | 
[V:3] z12 | 
[V:4] D,D2CB,A,B,2A,4 | 
[V:1] AGA2z2d2c2BA- | 
[V:2] f3edcd2e2dc- | 
[V:3] z12 | 
[V:4] D3CB,A,B,2A,2z2 | 
[V:1] AG2^FG4z4 | 
[V:2] cBA2G2B2cd2^c | 
[V:3] z12 | 
[V:4] z4G,3F,E,D,E,2 | 
[V:1] z12 | 
[V:2] d2B2cd2^cd4- | 
[V:3] z12 | 
[V:4] D,G,2F,E,D,E,2D,4- | 
[V:1] z4z4A4 | 
[V:2] d4z4a4 | 
[V:3] z4z4f4 | 
[V:4] D,4z4D,4 | 
[V:1] c3Bc2d4^c2 | 
[V:2] a6g2a4 | 
[V:3] e2f4d2e4 | 
[V:4] A,3G,A,2B,2A,4 | 
[V:1] d2f4e2d2cB | 
[V:2] f2eda8 | 
[V:3] d4d2c2d4 | 
[V:4] D,4z4D,4 | 
[V:1] c2A3Bd4^c2 | 
[V:2] z2a4g2a4 | 
[V:3] e2f4d2e4 | 
[V:4] A,3G,A,2B,2A,4 | 
[V:1] d8z2G2 | 
[V:2] z2f3ed2c3B | 
[V:3] d8e4 | 
[V:4] D,8z2C,2 | 
[V:1] F2G2D2F2G2A2 | 
[V:2] A2G2z2A2G2c2 | 
[V:3] d2c4d2BcA2 | 
[V:4] D,2E,2F,2D,2E,2F,2 | 
[V:1] D2G2A2B2c2BA- | 
[V:2] zB2cA2G2z2F2 | 
[V:3] G4z2d2c2d2 | 
[V:4] G,2E,2F,2G,2A,2D,2 | 
[V:1] AGF2EDG4^F2 | 
[V:2] GEF2G4A4 | 
[V:3] c2d4c2d4- | 
[V:4] E,2D,2E,4D,4 | 
[V:1] G12 ||  
[V:2] G12 ||  
[V:3] d12 ||  
[V:4] G,12 ||  
[V:1]  [K:C] [K:clef=treble][M:2/1]G8 | 
[V:2]  [K:C] [K:clef=treble-8][M:2/1]z8 | 
[V:3]  [K:C] [K:clef=treble-8][M:2/1]g8- | 
[V:4]  [K:C] [K:clef=bass][M:2/1]z8 | 
[V:1] B6AG | 
[V:2] z8 | 
[V:3] g8 | 
[V:4] z8 | 
[V:1] A4G2d2- | 
[V:2] z8 | 
[V:3] f4g4 | 
[V:4] z8 | 
[V:1] d2^cBc4 | 
[V:2] z8 | 
[V:3] e8 | 
[V:4] z8 | 
[V:1] d8 | 
[V:2] G8 | 
[V:3] d8- | 
[V:4] G,8- | 
[V:1] z8 | 
[V:2] B6AG | 
[V:3] d8 | 
[V:4] G,8 | 
[V:1] z8 | 
[V:2] A4G2d2- | 
[V:3] z4g4- | 
[V:4] F,4G,4 | 
[V:1] z4G4 | 
[V:2] d2^cB^c4 | 
[V:3] g4g4 | 
[V:4] E,8 | 
[V:1] A6B2 | 
[V:2] d8 | 
[V:3] f6ed | 
[V:4] D,8 | 
[V:1] c4d2e2- | 
[V:2] z8 | 
[V:3] e4f2g2- | 
[V:4] z8 | 
[V:1] edd4^c2 | 
[V:2] z8 | 
[V:3] gfede4 | 
[V:4] z8 | 
[V:1] d8- | 
[V:2] z8 | 
[V:3] d8- | 
[V:4] z4G,4- | 
[V:1] d8 | 
[V:2] z4G4 | 
[V:3] d8 | 
[V:4] G,4G,4 | 
[V:1] z8 | 
[V:2] A6B2 | 
[V:3] z8 | 
[V:4] F,6E,D, | 
[V:1] z8 | 
[V:2] c4d2e2- | 
[V:3] z8 | 
[V:4] E,4F,2G,2- | 
[V:1] z8 | 
[V:2] edd4^c2 | 
[V:3] z8 | 
[V:4] G,F,E,D,E,4 | 
[V:1] d6c2 | 
[V:2] d8 | 
[V:3] z8 | 
[V:4] D,8- | 
[V:1] B4A4 | 
[V:2] z8 | 
[V:3] d6c2 | 
[V:4] D,8 | 
[V:1] G4z4 | 
[V:2] z8 | 
[V:3] B4A4 | 
[V:4] G,6F,2 | 
[V:1] z8 | 
[V:2] g6f2 | 
[V:3] G4z4 | 
[V:4] E,4D,4 | 
[V:1] G4A4- | 
[V:2] e4d4 | 
[V:3] z8 | 
[V:4] C,4F,4- | 
[V:1] A2B2c3B | 
[V:2] c8- | 
[V:3] c6d2 | 
[V:4] F,2G,2A,2B,2 | 
[V:1] G6A2 | 
[V:2] c8 | 
[V:3] e2f2g4- | 
[V:4] C6B,A, | 
[V:1] B2c2d4 | 
[V:2] d6d2 | 
[V:3] g2f2d4 | 
[V:4] G,4B,4- | 
[V:1] z4A4 | 
[V:2] d4c4 | 
[V:3] f6e2- | 
[V:4] B,4A,4 | 
[V:1] B2G2A4 | 
[V:2] B4A4 | 
[V:3] e4d4- | 
[V:4] G,4F,4 | 
[V:1] B2c3BAG | 
[V:2] G8 | 
[V:3] d2c6 | 
[V:4] E,8 | 
[V:1] F8- | 
[V:2] A6_B2- | 
[V:3] d8- | 
[V:4] D,8- | 
[V:1] F8- | 
[V:2] B2A2_B3A | 
[V:3] d8- | 
[V:4] D,8- | 
[V:1] !fermata!F8 | 
[V:2] !fermata!A8 | 
[V:3] !fermata!d8 | 
[V:4] !fermata!D,8 | 
[V:1] G8 | 
[V:2] G8 | 
[V:3] g8 | 
[V:4] E,8 | 
[V:1] A8 | 
[V:2] c8 | 
[V:3] f8 | 
[V:4] F,8 | 
[V:1] B8 | 
[V:2] B8 | 
[V:3] d8 | 
[V:4] G,8 | 
[V:1] c6B2 | 
[V:2] e8 | 
[V:3] c8 | 
[V:4] A,8- | 
[V:1] A2G2A4 | 
[V:2] c4A4 | 
[V:3] e4f4 | 
[V:4] A,4F,4 | 
[V:1] G4E4 | 
[V:2] B4c4 | 
[V:3] e8 | 
[V:4] G,4A,4 | 
[V:1] !fermata!F8 | 
[V:2] !fermata!A8 | 
[V:3] !fermata!d8 | 
[V:4] !fermata!D,8 | 
[V:1] z8 | 
[V:2] z4d4- | 
[V:3] z8 | 
[V:4] D8 | 
[V:1] z8 | 
[V:2] d4G4 | 
[V:3] d8 | 
[V:4] G,4D4- | 
[V:1] z8 | 
[V:2] d6c2 | 
[V:3] G4d4- | 
[V:4] D2C2B,2A,2 | 
[V:1] z8 | 
[V:2] B2A2G4 | 
[V:3] d4c4 | 
[V:4] G,2F,2E,4 | 
[V:1] z8 | 
[V:2] A3Bc4 | 
[V:3] f4e2f2- | 
[V:4] D,4A,4 | 
[V:1] z8 | 
[V:2] d4c2c2- | 
[V:3] f2ede2f2- | 
[V:4] _B,4A,4 | 
[V:1] z8 | 
[V:2] c2BAG4 | 
[V:3] fed4^c2 | 
[V:4] F,2G,2E,4 | 
[V:1] z8 | 
[V:2] A4B4- | 
[V:3] d8 | 
[V:4] D,4G,4- | 
[V:1] z8 | 
[V:2] B2B2B4 | 
[V:3] z4d4 | 
[V:4] G,2G,2G,4 | 
[V:1] z8 | 
[V:2] B4c2d2- | 
[V:3] e4f4 | 
[V:4] G,4A,2B,2- | 
[V:1] z8 | 
[V:2] d2cBc2A2 | 
[V:3] g4f2e2- | 
[V:4] B,2A,G,A,4 | 
[V:1] z8 | 
[V:2] B2G2A2c2- | 
[V:3] e2d2f2e2- | 
[V:4] G,3F,D,2C,2 | 
[V:1] z8 | 
[V:2] c2BAG4 | 
[V:3] e2d4^c2 | 
[V:4] F,2G,2E,4 | 
[V:1] z4d4- | 
[V:2] A8 | 
[V:3] d8 | 
[V:4] D,8 | 
[V:1] d4c4 | 
[V:2] z4A4 | 
[V:3] z8 | 
[V:4] z8 | 
[V:1] B4c4 | 
[V:2] G4A4 | 
[V:3] z8 | 
[V:4] z8 | 
[V:1] A4G4 | 
[V:2] z2A2_B4 | 
[V:3] z8 | 
[V:4] z8 | 
[V:1] c4d4 | 
[V:2] A4_B4 | 
[V:3] z8 | 
[V:4] z8 | 
[V:1] e6f2- | 
[V:2] A2a2g2a2 | 
[V:3] z8 | 
[V:4] z8 | 
[V:1] fe/d/d4^c2 | 
[V:2] f2g2e4 | 
[V:3] z8 | 
[V:4] z8 | 
[V:1] !fermata!d8 | 
[V:2] !fermata!d8 | 
[V:3] z8 | 
[V:4] z8 | 
[V:1] d8 | 
[V:2] d8 | 
[V:3] G8 | 
[V:4] _B,8 | 
[V:1] c8 | 
[V:2] e8 | 
[V:3] c8 | 
[V:4] A,8 | 
[V:1] B8 | 
[V:2] g8 | 
[V:3] d8 | 
[V:4] G,8 | 
[V:1] A8 | 
[V:2] c8 | 
[V:3] f8 | 
[V:4] F,8 | 
[V:1] G8 | 
[V:2] B8 | 
[V:3] e4d4 | 
[V:4] G,8 | 
[V:1] G8 | 
[V:2] G8 | 
[V:3] ^c8 | 
[V:4] E,8 | 
[V:1] !fermata!F8 | 
[V:2] !fermata!A8 | 
[V:3] !fermata!d8 | 
[V:4] !fermata!D,8 | 
[V:1] z8 | 
[V:2] z8 | 
[V:3] z4g4- | 
[V:4] G,6F,2 | 
[V:1] z8 | 
[V:2] z8 | 
[V:3] g4f4 | 
[V:4] E,4D,2A,2- | 
[V:1] z8 | 
[V:2] z8 | 
[V:3] e3de2c2- | 
[V:4] A,G,A,B,C3B, | 
[V:1] z8 | 
[V:2] z8 | 
[V:3] cBcde2f2- | 
[V:4] A,G,A,3G,F,E, | 
[V:1] z8 | 
[V:2] z8 | 
[V:3] fed4^c2 | 
[V:4] F,2G,2E,4 | 
[V:1] z8 | 
[V:2] z8 | 
[V:3] !fermata!d8 | 
[V:4] !fermata!D,8 | 
[V:1] G8 | 
[V:2] G8 | 
[V:3] g8 | 
[V:4] E,8 | 
[V:1] A8 | 
[V:2] d8 | 
[V:3] f8 | 
[V:4] D,8 | 
[V:1] c8 | 
[V:2] c8 | 
[V:3] e8 | 
[V:4] A,8 | 
[V:1] c8 | 
[V:2] e8 | 
[V:3] c8 | 
[V:4] A,8 | 
[V:1] B8 | 
[V:2] g8 | 
[V:3] d8 | 
[V:4] G,8 | 
[V:1] !fermata!A8 | 
[V:2] !fermata!f8 | 
[V:3] !fermata!d8 | 
[V:4] !fermata!D,8 | 
[V:1] G6F2 | 
[V:2] z8 | 
[V:3] z8 | 
[V:4] z8 | 
[V:1] G4A4 | 
[V:2] g6f2 | 
[V:3] z8 | 
[V:4] z8 | 
[V:1] G4D4 | 
[V:2] g4a4 | 
[V:3] z8 | 
[V:4] z8 | 
[V:1] E4F4 | 
[V:2] g4d4 | 
[V:3] z8 | 
[V:4] z8 | 
[V:1] G4z2A2 | 
[V:2] e4f4 | 
[V:3] z8 | 
[V:4] z8 | 
[V:1] B2c2d4 | 
[V:2] g4z2d2 | 
[V:3] z8 | 
[V:4] z8 | 
[V:1] c4B2e2- | 
[V:2] e2f2g4 | 
[V:3] z8 | 
[V:4] z8 | 
[V:1] edd4^c2 | 
[V:2] f2g2e4 | 
[V:3] z8 | 
[V:4] z8 | 
[V:1] !fermata!d8 | 
[V:2] !fermata!d8 | 
[V:3] z8 | 
[V:4] z8 | 
[V:1] B8 | 
[V:2] d8 | 
[V:3] g8 | 
[V:4] G,8 | 
[V:1] c8 | 
[V:2] f8 | 
[V:3] a8 | 
[V:4] F,8 | 
[V:1] B8 | 
[V:2] d8 | 
[V:3] g8 | 
[V:4] G,8 | 
[V:1] A4e4- | 
[V:2] d4c4- | 
[V:3] f4g4- | 
[V:4] z4C,4- | 
[V:1] e2d2d4- | 
[V:2] c2B2A4- | 
[V:3] g4f4 | 
[V:4] C,4D,4 | 
[V:1] d4^c4 | 
[V:2] A4A4 | 
[V:3] e8 | 
[V:4] A,8 | 
[V:1] d8 | 
[V:2] A8 | 
[V:3] d8 | 
[V:4] D,8 | 
[V:1] A8 | 
[V:2] A8 | 
[V:3] c8 | 
[V:4] F,8 | 
[V:1] A8 | 
[V:2] c8 | 
[V:3] f8 | 
[V:4] F,8 | 
[V:1] G8 | 
[V:2] c8 | 
[V:3] e8 | 
[V:4] C,8 | 
[V:1] F8 ||  
[V:2] A8 ||  
[V:3] d8 ||  
[V:4] D,8 ||  
[V:1]  [K:C] [K:clef=treble][M:3/1]d6c2d4 | 
[V:2]  [K:C] [K:clef=treble-8][M:3/1]d6e2f4 | 
[V:3]  [K:C] [K:clef=treble-8][M:3/1]z12 | 
[V:4]  [K:C] [K:clef=bass][M:3/1]z12 | 
[V:1] e4c8 | 
[V:2] g4a6g2 | 
[V:3] z12 | 
[V:4] z12 | 
[V:1] B4A8 | 
[V:2] ^f2e2^f6e2 | 
[V:3] d6c2d4 | 
[V:4] z12 | 
[V:1] G4z4z4 | 
[V:2] g8z4 | 
[V:3] e4c8 | 
[V:4] C,4E,4F,4 | 
[V:1] z12 | 
[V:2] z12 | 
[V:3] B4A8 | 
[V:4] G,6^F,E,F,4 | 
[V:1] G6F2E4 | 
[V:2] z12 | 
[V:3] G4B4c4 | 
[V:4] G,8z4 | 
[V:1] D2F4G2E4 | 
[V:2] z4z4g4 | 
[V:3] d8^c4 | 
[V:4] z12 | 
[V:1] D8D4 | 
[V:2] f6e2d2c2 | 
[V:3] d12 | 
[V:4] D,8G,4- | 
[V:1] G8A4 | 
[V:2] B2G2B3cA4 | 
[V:3] z12 | 
[V:4] G,4G,4^F,4 | 
[V:1] B8B4 | 
[V:2] G12 | 
[V:3] d8g4- | 
[V:4] G,6A,2B,4 | 
[V:1] G4c8 | 
[V:2] z4z4c4 | 
[V:3] g4g4f4 | 
[V:4] C4A,8 | 
[V:1] B4d6c2 | 
[V:2] d6e2f4- | 
[V:3] g8d4 | 
[V:4] G,4_B,6A,2 | 
[V:1] A6B2c4 | 
[V:2] f2e2c8 | 
[V:3] f8e4 | 
[V:4] F,6G,2A,4 | 
[V:1] d4e8 | 
[V:2] f4a8 | 
[V:3] d4c4d4- | 
[V:4] _B,4A,4B,4- | 
[V:1] d8^c4 | 
[V:2] g4a8 | 
[V:3] d4e8 | 
[V:4] B,4A,8 | 
[V:1] [M:2/1]d8 | 
[V:2] [M:2/1]f8 | 
[V:3] [M:2/1]d8- | 
[V:4] [M:2/1]D,8- | 
[V:1] z4d4 | 
[V:2] z4d4 | 
[V:3] d8 | 
[V:4] D,8 | 
[V:1] B2c4BA | 
[V:2] e4f4 | 
[V:3] z8 | 
[V:4] z8 | 
[V:1] G4F4 | 
[V:2] g2G2A4 | 
[V:3] z4d4 | 
[V:4] z4D,4 | 
[V:1] G4A4 | 
[V:2] G4z2c2 | 
[V:3] B2c4A2 | 
[V:4] E,4F,4 | 
[V:1] z2A4F2 | 
[V:2] B2c4d2 | 
[V:3] G2F2A3B | 
[V:4] G,2A,2F,3E, | 
[V:1] E2G6 | 
[V:2] e6d2 | 
[V:3] c2G2B3c | 
[V:4] C,2E,3F,G,2 | 
[V:1] F2A6 | 
[V:2] f6e2 | 
[V:3] d2A2c3d | 
[V:4] D,2F,3G,A,2 | 
[V:1] G2B3cd2 | 
[V:2] g6f2- | 
[V:3] e2B2d3e | 
[V:4] E,2G,3A,_B,2 | 
[V:1] A2c6 | 
[V:2] f2e2c4 | 
[V:3] f2c2e3f | 
[V:4] F,2A,3B,C2 | 
[V:1] B2d3cAB | 
[V:2] d6f2- | 
[V:3] g2d2f3e | 
[V:4] G,2_B,3A,F,2 | 
[V:1] c3BGAB2- | 
[V:2] fecde3d | 
[V:3] c2e3dB2 | 
[V:4] A,3G,E,2G,2- | 
[V:1] BAFGA3G | 
[V:2] Bcd3cAB | 
[V:3] d3cA2c2- | 
[V:4] G,F,D,2F,3E, | 
[V:1] EDG4^F2 | 
[V:2] c4d4- | 
[V:3] cBG2A4 | 
[V:4] C,2E,2D,4 | 
[V:1] G8- | 
[V:2] d2e6 | 
[V:3] G8- | 
[V:4] G,8- | 
[V:1] G8 |]  
[V:2] d8 |]  
[V:3] G8 |]  
[V:4] G,8 |]  



